X: 4
T: The Road To Glountane
R: reel
M: 4/4
L: 1/8
K: Dmaj
|:E2 E>F A2 A>B|c>ee>c B>A F2|1 (3faf e>c A>Bc>d|e>cB>A F>AA>F:| |2 a>fe>c A>Bc>d|ec (3BcB A2 A>F||:e3 f a2 a>f|e>cB>A F>A A2|c>BA>B c>BB>A|1 (3cec B>A F>A A2:|


Tune 1615	Setting 15034

